X:1
T:Holy, Holy, Holy Is the Lord
T:Holy, Holy, Holy Is the Lord
T:William Batchelder Bradbury, 1867
T:Frances Jane (Fanny) Crosby, 1869
T:Public Domain Courtesy of the Cyber Hymnal™
T:Public Domain Courtesy of the Cyber Hymnal™
C:William Batchelder Bradbury, 1867
Z:Public Domain
Z:Courtesy of the Cyber Hymnal™
%%score ( 1 2 ) ( 3 4 )
L:1/8
Q:1/4=113
M:4/4
K:F
V:1 treble 
V:2 treble 
V:3 bass 
V:4 bass 
V:1
 [FA]2 [FA]2 [FA]2 [FA]2 | [DG]>[DF] [CE]>[B,D] [A,C]4 | [CF]2 [CF]>[CG] [CF]2 [CE]2 | %3
w: 1.~Ho- ly, ho- ly,|ho- ly is the Lord!|Sing, O ye peo- ple,|
w: 2.~Praise Him, praise Him!|shout a- loud for joy,|Watch- man of Zi- on,|
w: 3.~King e- ter- nal,|bless- èd be His name!|So may His child- ren|
 [EG]2 [EG]>[FA] [EG]2 F2 | [FA]2 [FA]2 [FA]2 [FA]2 | [DG]>[DF] [CE]>[B,D] [A,C]4 | %6
w: glad- ly a- dore Him;|Let the mount- ains|trem- ble at His word;|
w: her- ald the stor- y;|Sin and death His|king- dom shall de- stroy;|
w: glad- ly a- dore Him;|When in heav’n we|join the hap- py strain,|
 [B,D]>[CE] [CF]>[FG] [FA]2 [GB]>[FA] | [EG]4 F2 z2 | [Ac]2 [Ac]>[Ff] [Af]2 [Ge]2 | %9
w: Let the hills be joy- ful be-|fore Him;|Might- y in wis- dom,|
w: All the earth shall sing of His|glor- y;|Praise Him, ye an- gels,|
w: When we cast our bright crowns be-|fore Him;|There in His like- ness|
 [ce]2 [Bd]>[Bc] [Ac]2 [FA]2 | [Ac]2 [Ac]>[Ff] [Af]2 [Ge]2 | [Ge]2 [Fd]>[Ge] [Ec]4 || %12
w: bound- less in mer- cy,|Great is Je- ho- vah,|king o- ver all.|
w: ye who be- hold Him,|Robed in His splen- dor,|match- less, di- vine.|
w: joy- ful a- wak- ing,|There we shall see Him,|there we shall sing:|
"^Refrain" [FA]2 [FA]2 [FA]2 [FA]2 | [DG]>[DF] [CE]>[B,D] [A,C]4 | %14
w: ||
w: ||
w: ||
 [B,D]>[CE] [CF]>[FG] [FA]2 [GB]>[FA] | [EG]4 F4 |] %16
w: ||
w: ||
w: ||
V:2
 x8 | x8 | x8 | x6 F2 | x8 | x8 | x8 | x4 F2 x2 | x8 | x8 | x8 | x8 || x8 | x8 | x8 | x4 F4 |] %16
V:3
 [F,C]2 [F,C]2 [F,C]2 [F,C]2 | [B,,B,]>[B,,B,] [B,,F,]>[B,,F,] [F,,F,]4 | %2
w: ~ ~ ~ ~|~ ~ ~ ~ ~|
 [F,A,]2 [F,A,]>[F,B,] [C,A,]2 [C,G,]2 | [C,C]2 [C,C]>[C,C] [C,B,]2 [F,A,]2 | %4
w: ~ ~ ~ ~ ~|~ ~ ~ ~ ~|
 [F,C]2 [C,C]2 [A,,C]2 [F,,C]2 | [B,,B,]>[B,,B,] [B,,F,]>[B,,F,] [F,,F,]4 | %6
w: ~ ~ ~ ~|~ ~ ~ ~ ~|
 [B,,F,]>[G,,G,] [A,,F,]>[B,,D] [C,C]2 [C,C]>[C,C] | [C,B,]4 [F,A,]2 z2 | %8
w: ~ ~ ~ ~ ~ ~ ~|~ ~|
 [F,C]2 [F,C]>[A,C] C2 C2 | [C,C]2 [C,C]>[E,C] [F,C]2 [F,C]2 | [F,C]2 [F,C]>[A,C] C2 C2 | %11
w: ~ ~ ~ ~ ~|~ ~ ~ ~ ~|~ ~ ~ ~ ~|
 [G,C]2 [G,=B,]>[G,B,] [C,C]4 || [F,C]2 [C,C]2 [A,,C]2 [F,,C]2 | %13
w: ~ ~ ~ ~|Ho- ly, ho- ly,|
 [B,,B,]>[B,,B,] [B,,F,]>[B,,F,] [F,,F,]4 | [B,,F,]>[G,,G,] [A,,F,]>[B,,D] [C,C]2 [C,C]>[C,C] | %15
w: ho- ly is the Lord!|Let the hills be joy- ful be-|
 [C,B,]4 [F,A,]4 |] %16
w: fore Him.|
V:4
 x8 | x8 | x8 | x8 | x8 | x8 | x8 | x8 | x4 C2 C2 | x8 | x4 C2 C2 | x8 || x8 | x8 | x8 | x8 |] %16

